src/assets/icons/Social/Linkedin.svg

<?xml version="1.0" encoding="UTF-8"?>
<svg width="24px" height="24px" viewBox="0 0 24 24" version="1.1" xmlns="http://www.w3.org/2000/svg" xmlns:xlink="http://www.w3.org/1999/xlink">
    <!-- Generator: Sketch 61 (89581) - https://sketch.com -->
    <title>🎨 Color</title>
    <desc>Created with Sketch.</desc>
    <defs>
        <path d="M20.452313,20.4506667 L16.893959,20.4506667 L16.893959,14.8804444 C16.893959,13.552 16.8704026,11.8435556 15.0441127,11.8435556 C13.1915997,11.8435556 12.9089226,13.2915556 12.9089226,14.7853333 L12.9089226,20.4506667 L9.35056854,20.4506667 L9.35056854,8.99733333 L12.7649172,8.99733333 L12.7649172,10.5635556 L12.8138079,10.5635556 C13.2889366,9.66266667 14.450313,8.71333333 16.1819327,8.71333333 C19.7869551,8.71333333 20.452313,11.0848889 20.452313,14.1688889 L20.452313,20.4506667 Z M5.33753102,7.43244444 C4.19659987,7.43244444 3.27434349,6.50755556 3.27434349,5.36888889 C3.27434349,4.22888889 4.19659987,3.304 5.33753102,3.304 C6.47535094,3.304 7.40027408,4.22888889 7.40027408,5.36888889 C7.40027408,6.50755556 6.47535094,7.43244444 5.33753102,7.43244444 Z M3.55702063,20.4506667 L7.11804141,20.4506667 L7.11804141,8.99733333 L3.55702063,8.99733333 L3.55702063,20.4506667 Z M22.2248231,0 L1.77117671,0 C0.794251639,0 0,0.775111111 0,1.73066667 L0,22.2684444 C0,23.224 0.794251639,24 1.77117671,24 L22.2248231,24 C23.2039705,24 24,23.224 24,22.2684444 L24,1.73066667 C24,0.775111111 23.2039705,0 22.2248231,0 L22.2248231,0 Z" id="path-1"></path>
    </defs>
    <g id="💟-Symbols" stroke="none" stroke-width="1" fill="none" fill-rule="evenodd">
        <g id="09-Icons-/-Social-/-Linkdin">
            <mask id="mask-2" fill="white">
                <use xlink:href="#path-1"></use>
            </mask>
            <use id="🎨-Color" fill="#000000" xlink:href="#path-1"></use>
        </g>
    </g>
</svg>

<svg width="24" height="24" viewBox="0 0 24 24" xmlns="http://www.w3.org/2000/svg" xmlns:xlink="http://www.w3.org/1999/xlink"><defs><path d="M20.452 20.45h-3.558v-5.57c0-1.328-.024-3.036-1.85-3.036-1.852 0-2.135 1.448-2.135 2.941v5.666H9.35V8.997h3.414v1.567h.049c.475-.901 1.636-1.85 3.368-1.85 3.605 0 4.27 2.37 4.27 5.455v6.282zM5.338 7.433a2.063 2.063 0 110-4.13 2.063 2.063 0 010 4.13zM3.557 20.451h3.561V8.997H3.557v11.454zM22.225 0H1.77C.794 0 0 .775 0 1.73v20.538C0 23.224.794 24 1.771 24h20.454c.979 0 1.775-.776 1.775-1.732V1.731C24 .775 23.204 0 22.225 0z" id="a"/></defs><use fill="#000" xlink:href="#a" fill-rule="evenodd"/></svg>
